X: 22
T:Horses Bransle
M:4/4
L:1/4
R:Bransle
N:http://www.lesession.co.uk
Z:Steve Mansfield 1998-2001
K:G
G>A BB | cB Ac | BA GF | E2 D2 | 
G>A BB | cB Ac | BA GF | G2 G2 :: 
dc/B/ AA/B/ | cB/A/ GB | AG FG | A2 A2 | 
dc/B/ AA/B/ | cB/A/ GB | AG GF | G2 G2 :: 
BA/G/ BA/G/ | FG A2 | DE FG | AB AG | 
BA/G/ BA/G/ | FG A2 | DE FG | GF G2 :|

